packages/icons/src/assets/raw/outlined/action/SVG/outlined-action-copy.svg

<svg xmlns="http://www.w3.org/2000/svg" viewBox="0 0 24 24"><path d="M15 21.5H6A1.5 1.5 0 0 1 4.5 20V7A1.5 1.5 0 0 1 6 5.5h2v1H6a.5.5 0 0 0-.5.5v13a.5.5 0 0 0 .5.5h9a.5.5 0 0 0 .5-.5v-2h1v2a1.5 1.5 0 0 1-1.5 1.5z"/><path d="M18 18.5H9A1.5 1.5 0 0 1 7.5 17V4A1.5 1.5 0 0 1 9 2.5h6a.47.47 0 0 1 .35.15l4 4a.47.47 0 0 1 .15.35v10a1.5 1.5 0 0 1-1.5 1.5zm-9-15a.5.5 0 0 0-.5.5v13a.5.5 0 0 0 .5.5h9a.5.5 0 0 0 .5-.5V7.21L14.79 3.5z"/><path d="M15 10.4h-5a.5.5 0 0 1-.5-.5.5.5 0 0 1 .5-.5h5a.5.5 0 0 1 .5.5.5.5 0 0 1-.5.5zm1 2.4h-6a.5.5 0 0 1-.5-.5.5.5 0 0 1 .5-.5h6a.5.5 0 0 1 .5.5.5.5 0 0 1-.5.5zm0 2.41h-6a.5.5 0 0 1 0-1h6a.5.5 0 0 1 0 1zm3-7.71h-3A1.5 1.5 0 0 1 14.5 6V3a.5.5 0 0 1 .31-.46.47.47 0 0 1 .54.11l4 4a.47.47 0 0 1 .11.54.5.5 0 0 1-.46.31zm-3.5-3.29V6a.5.5 0 0 0 .5.5h1.79z"/></svg>

<svg xmlns="http://www.w3.org/2000/svg" xmlns:xlink="http://www.w3.org/1999/xlink" viewBox="0 0 24 24">
  <defs>
    <clipPath id="a">
      <rect width="24" height="24"/>
    </clipPath>
  </defs>
  <title>outlined-action-copy</title>
  <g>
    <g style="opacity: 0">
      <g>
        <rect width="24" height="24"/>
        <g style="clip-path: url(#a)">
          <g>
            <rect width="24" height="24"/>
            <path d="M12,21.5A9.5,9.5,0,1,1,21.5,12,9.51,9.51,0,0,1,12,21.5Zm0-18A8.5,8.5,0,1,0,20.5,12,8.51,8.51,0,0,0,12,3.5Z"/>
          </g>
        </g>
      </g>
    </g>
    <g>
      <path d="M15,21.5H6A1.5,1.5,0,0,1,4.5,20V7A1.5,1.5,0,0,1,6,5.5H8v1H6a.5.5,0,0,0-.5.5V20a.5.5,0,0,0,.5.5h9a.5.5,0,0,0,.5-.5V18h1v2A1.5,1.5,0,0,1,15,21.5Z"/>
      <g>
        <path d="M18,18.5H9A1.5,1.5,0,0,1,7.5,17V4A1.5,1.5,0,0,1,9,2.5h6a.47.47,0,0,1,.35.15l4,4A.47.47,0,0,1,19.5,7V17A1.5,1.5,0,0,1,18,18.5ZM9,3.5a.5.5,0,0,0-.5.5V17a.5.5,0,0,0,.5.5h9a.5.5,0,0,0,.5-.5V7.21L14.79,3.5Z"/>
        <g>
          <path d="M15,10.4H10a.5.5,0,0,1-.5-.5.5.5,0,0,1,.5-.5h5a.5.5,0,0,1,.5.5A.5.5,0,0,1,15,10.4Z"/>
          <path d="M16,12.8H10a.5.5,0,0,1-.5-.5.5.5,0,0,1,.5-.5h6a.5.5,0,0,1,.5.5A.5.5,0,0,1,16,12.8Z"/>
          <path d="M16,15.21H10a.5.5,0,0,1,0-1h6a.5.5,0,0,1,0,1Z"/>
        </g>
        <path d="M19,7.5H16A1.5,1.5,0,0,1,14.5,6V3a.5.5,0,0,1,.31-.46.47.47,0,0,1,.54.11l4,4a.47.47,0,0,1,.11.54A.5.5,0,0,1,19,7.5ZM15.5,4.21V6a.5.5,0,0,0,.5.5h1.79Z"/>
      </g>
    </g>
  </g>
</svg>
